X: 58
T: Rolling in the Rye Grass
M:C|
P: can be played as a fling
L:1/8
R:reel
K:D
"D"A2 AF DFAF|"G"G2 BG dGBG|"D"A2 AF DFAF|"G"GBAF "D"E2 D2:|
|:"D"ABde f2 fd|"G"g2 ge "D"fedB|ABde f2fg|afdf "A"e2 dB:|


